assets/cssInJs.svg

<svg id="Capa_1" enable-background="new 0 0 512 512" viewBox="0 0 512 512"
  xmlns="http://www.w3.org/2000/svg">
  <g>
    <path d="m497 512h-301c-8.291 0-15-6.709-15-15v-181c0-8.291 6.709-15 15-15h105v-105c0-8.291 6.709-15 15-15h181c8.291 0 15 6.709 15 15v301c0 8.291-6.709 15-15 15z" fill="#6aa9ff"/>
    <path d="m181 331h-166c-8.284 0-15-6.716-15-15v-301c0-8.284 6.716-15 15-15h301c8.284 0 15 6.716 15 15v166c0 16.569-13.431 30-30 30h-90v90c0 16.569-13.431 30-30 30z" fill="#fed843"/>
    <path d="m316 0h-301c-4.147 0-7.901 1.683-10.616 4.404l206.616 206.615v-.019h90c16.569 0 30-13.431 30-30v-166c0-8.284-6.716-15-15-15z" fill="#fabe2c"/>
    <path d="m497 181h-181c-8.291 0-15 6.709-15 15v105h-.019l206.618 206.618c2.719-2.714 4.401-6.468 4.401-10.618v-301c0-8.291-6.709-15-15-15z" fill="#2682ff"/>
    <path d="m316 331h-135v-135c0-8.284 6.716-15 15-15h135v135c0 8.284-6.716 15-15 15z" fill="#9cdd05"/>
    <path d="m185.384 185.404 141.212 141.212c2.72-2.715 4.404-6.469 4.404-10.616v-135h-135c-4.147 0-7.901 1.683-10.616 4.404z" fill="#59c36a"/>
  </g>
</svg>

<svg viewBox="0 0 512 512" xmlns="http://www.w3.org/2000/svg"><path d="M497 512H196c-8.291 0-15-6.709-15-15V316c0-8.291 6.709-15 15-15h105V196c0-8.291 6.709-15 15-15h181c8.291 0 15 6.709 15 15v301c0 8.291-6.709 15-15 15z" fill="#6aa9ff"/><path d="M181 331H15c-8.284 0-15-6.716-15-15V15C0 6.716 6.716 0 15 0h301c8.284 0 15 6.716 15 15v166c0 16.569-13.431 30-30 30h-90v90c0 16.569-13.431 30-30 30z" fill="#fed843"/><path d="M316 0H15A14.95 14.95 0 004.384 4.404L211 211.019V211h90c16.569 0 30-13.431 30-30V15c0-8.284-6.716-15-15-15z" fill="#fabe2c"/><path d="M497 181H316c-8.291 0-15 6.709-15 15v105h-.019l206.618 206.618A14.953 14.953 0 00512 497V196c0-8.291-6.709-15-15-15z" fill="#2682ff"/><path d="M316 331H181V196c0-8.284 6.716-15 15-15h135v135c0 8.284-6.716 15-15 15z" fill="#9cdd05"/><path d="M185.384 185.404l141.212 141.212A14.954 14.954 0 00331 316V181H196a14.95 14.95 0 00-10.616 4.404z" fill="#59c36a"/></svg>
